html/assets/images/dynamic/icon11.svg

<svg width="148" height="73" viewBox="0 0 148 73" fill="none" xmlns="http://www.w3.org/2000/svg">
<g id="Logo Card Wrapper">
<g id="Logo">
<g id="Group">
<g id="Group_2">
<path id="Vector" fill-rule="evenodd" clip-rule="evenodd" d="M29.301 30.1462L38.9743 25.1241L48.7515 30.1462L38.9743 35.1809L29.301 30.1462ZM87.3725 32.5849V32.4636C87.3725 30.811 88.3446 30.281 89.982 30.3984V27.3767C86.0595 27.1376 84.2004 29.1028 84.2004 32.4636V32.5849H82.4265V35.607H84.2004V44.7546H87.3725V35.607H91.0224V44.7546H94.1945V35.607H96.804V32.5849H94.1945V32.4636C94.1945 30.811 95.1497 30.281 96.804 30.3984V27.3767C92.8815 27.1376 91.0224 29.1028 91.0224 32.4636V32.5849H87.3725ZM65.2003 35.8939C66.2064 35.0939 66.8203 33.9505 66.8203 32.481C66.8203 29.6328 64.5008 27.6854 61.5843 27.6854H54.8131V44.7198H62.1299C65.1147 44.7198 67.5024 42.7068 67.5024 39.7895C67.4685 38.0287 66.5816 36.6804 65.2003 35.8939ZM61.6013 30.8419C62.693 30.8419 63.4434 31.6458 63.4434 32.7201C63.4434 33.7979 62.6586 34.5979 61.6013 34.5979H58.2074V30.8419H61.6013ZM62.113 41.5982H58.2074V37.5848H62.113C63.273 37.5848 64.1086 38.4369 64.1086 39.5804C64.1086 40.7417 63.273 41.5982 62.113 41.5982ZM77.3949 32.5675V39.1373C77.3949 41.2547 76.2353 42.159 74.6832 42.159C73.2502 42.159 72.2441 41.3069 72.2441 39.6499V32.5675H69.0715V40.0417C69.0715 43.2851 71.1015 45.0807 73.728 45.0807C75.3823 45.0807 76.6614 44.4633 77.3779 43.372V44.7372H80.55V32.5675H77.3949ZM109.954 39.9412H100.676C101.137 41.546 102.467 42.2286 104.121 42.2286C105.366 42.2286 106.356 41.7151 106.884 41.0156L109.442 42.4677C108.3 44.1238 106.458 45.0807 104.087 45.0807C99.9596 45.0807 97.3501 42.2808 97.3501 38.6461C97.3501 35.007 99.9766 32.2066 103.848 32.2066C107.481 32.2066 110.074 35.0592 110.074 38.6461C110.074 39.12 110.022 39.533 109.954 39.9412ZM103.848 35.0592C102.143 35.0592 100.983 35.9635 100.624 37.5152H106.901C106.509 35.7592 105.179 35.0592 103.848 35.0592ZM114.661 34.6674V32.5675H111.489V44.7372H114.661V38.9156C114.661 36.3544 116.743 35.6244 118.397 35.8283V32.3288C116.845 32.3288 115.293 33.0114 114.661 34.6674ZM38.9743 43.7938L32.3749 40.2069L29.301 41.8721L38.9743 47.1241L48.7515 41.8721L45.6429 40.2069L38.9743 43.7938ZM32.3749 34.5505L38.9743 37.8022L45.6429 34.5505L48.7515 36.0678L38.9743 40.8373L29.301 36.0678L32.3749 34.5505Z" fill="#1B313B"/>
</g>
</g>
</g>
</g>
</svg>

<svg width="148" height="73" fill="none" xmlns="http://www.w3.org/2000/svg"><path fill-rule="evenodd" clip-rule="evenodd" d="M29.301 30.146l9.673-5.022 9.778 5.022-9.778 5.035-9.673-5.035zm58.072 2.439v-.121c0-1.653.972-2.183 2.609-2.066v-3.021c-3.922-.24-5.782 1.726-5.782 5.087v.12h-1.773v3.023H84.2v9.148h3.172v-9.148h3.65v9.148h3.172v-9.148h2.61v-3.022h-2.61v-.121c0-1.653.956-2.183 2.61-2.066v-3.021c-3.922-.24-5.782 1.726-5.782 5.087v.12h-3.65zM65.2 35.894c1.006-.8 1.62-1.944 1.62-3.413 0-2.848-2.32-4.796-5.236-4.796h-6.77V44.72h7.316c2.985 0 5.372-2.013 5.372-4.93-.033-1.761-.92-3.11-2.302-3.896zm-3.599-5.052c1.092 0 1.842.804 1.842 1.878 0 1.078-.784 1.878-1.842 1.878h-3.394v-3.756h3.394zm.512 10.756h-3.906v-4.013h3.906c1.16 0 1.996.852 1.996 1.995 0 1.162-.836 2.018-1.996 2.018zm15.282-9.03v6.57c0 2.117-1.16 3.021-2.712 3.021-1.433 0-2.439-.852-2.439-2.51v-7.081h-3.172v7.474c0 3.243 2.03 5.039 4.656 5.039 1.654 0 2.933-.618 3.65-1.709v1.365h3.172v-12.17h-3.155zm32.559 7.373h-9.278c.461 1.605 1.791 2.288 3.445 2.288 1.245 0 2.235-.514 2.763-1.213l2.558 1.452c-1.142 1.656-2.984 2.613-5.355 2.613-4.127 0-6.737-2.8-6.737-6.435 0-3.639 2.627-6.44 6.498-6.44 3.633 0 6.226 2.853 6.226 6.44 0 .474-.052.887-.12 1.295zm-6.106-4.882c-1.705 0-2.865.905-3.224 2.456h6.277c-.392-1.756-1.722-2.456-3.053-2.456zm10.813-.392v-2.1h-3.172v12.17h3.172v-5.821c0-2.562 2.082-3.292 3.736-3.088v-3.5c-1.552 0-3.104.683-3.736 2.34zm-75.687 9.127l-6.6-3.587-3.073 1.665 9.673 5.252 9.778-5.252-3.11-1.665-6.668 3.587zm-6.6-9.243l6.6 3.251 6.669-3.252 3.108 1.518-9.777 4.77-9.673-4.77 3.074-1.517z" fill="#1B313B"/></svg>07C99.9596 45.0807 97.3501 42.2808 97.3501 38.6461C97.3501 35.007 99.9766 32.2066 103.848 32.2066C107.481 32.2066 110.074 35.0592 110.074 38.6461C110.074 39.12 110.022 39.533 109.954 39.9412ZM103.848 35.0592C102.143 35.0592 100.983 35.9635 100.624 37.5152H106.901C106.509 35.7592 105.179 35.0592 103.848 35.0592ZM114.661 34.6674V32.5675H111.489V44.7372H114.661V38.9156C114.661 36.3544 116.743 35.6244 118.397 35.8283V32.3288C116.845 32.3288 115.293 33.0114 114.661 34.6674ZM38.9743 43.7938L32.3749 40.2069L29.301 41.8721L38.9743 47.1241L48.7515 41.8721L45.6429 40.2069L38.9743 43.7938ZM32.3749 34.5505L38.9743 37.8022L45.6429 34.5505L48.7515 36.0678L38.9743 40.8373L29.301 36.0678L32.3749 34.5505Z" fill="#1B313B"/>
</g>
</g>
</g>
</g>
</svg>
